resources/haticons/SVG/home_repair_service.svg

<!-- Generated by IcoMoon.io -->
<svg version="1.1" xmlns="http://www.w3.org/2000/svg" width="24" height="24" viewBox="0 0 24 24">
<title>home_repair_service</title>
<path d="M18 15.984h-2.016v-0.984h-7.969v0.984h-2.016v-0.984h-3.984v5.016h19.969v-5.016h-3.984v0.984zM20.016 8.016h-3v-2.016q0-0.844-0.586-1.43t-1.43-0.586h-6q-0.844 0-1.43 0.586t-0.586 1.43v2.016h-3q-0.797 0-1.383 0.586t-0.586 1.383v4.031h3.984v-2.016h2.016v2.016h7.969v-2.016h2.016v2.016h3.984v-4.031q0-0.797-0.586-1.383t-1.383-0.586zM15 8.016h-6v-2.016h6v2.016z"></path>
</svg>

<svg xmlns="http://www.w3.org/2000/svg" width="24" height="24"><path d="M18 15.984h-2.016V15H8.015v.984H5.999V15H2.015v5.016h19.969V15H18v.984zm2.016-7.968h-3V6q0-.844-.586-1.43T15 3.984H9q-.844 0-1.43.586T6.984 6v2.016h-3q-.797 0-1.383.586t-.586 1.383v4.031h3.984V12h2.016v2.016h7.969V12H18v2.016h3.984V9.985q0-.797-.586-1.383t-1.383-.586zm-5.016 0H9V6h6v2.016z"/></svg>
